MicroOS/square-symbolic.svg

<svg xmlns="http://www.w3.org/2000/svg" height="16" width="16" preserveAspectRatio="xMidYMid meet" viewBox="0 0 16 16">
<path d="M 8.0078125 3 C 5.4212389 3 3.2854169 4.9783557 3.0332031 7.5 L 0.5078125 7.5 A 0.50005 0.50005 0 1 0 0.5078125 8.5 L 3.0332031 8.5 C 3.2854169 11.021644 5.4212389 13 8.0078125 13 C 10.594386 13 12.730208 11.021644 12.982422 8.5 L 15.507812 8.5 A 0.50005 0.50005 0 1 0 15.507812 7.5 L 12.982422 7.5 C 12.730208 4.9783557 10.594386 3 8.0078125 3 z M 8.0078125 4 C 10.206185 4 11.977289 5.7593081 12.003906 7.9511719 A 0.50005 0.50005 0 0 0 12.003906 8.046875 C 11.978335 10.23966 10.206848 12 8.0078125 12 C 5.80944 12 4.038336 10.240692 4.0117188 8.0488281 A 0.50005 0.50005 0 0 0 4.0117188 7.953125 C 4.0372903 5.7603396 5.8087777 4 8.0078125 4 z M 8.0078125 6 C 6.9091653 6 6.0078125 6.9013528 6.0078125 8 C 6.0078125 9.0986472 6.9091653 10 8.0078125 10 C 9.1064597 10 10.007813 9.0986472 10.007812 8 C 10.007812 6.9013528 9.1064597 6 8.0078125 6 z M 8.0078125 7 C 8.5660196 7 9.0078125 7.4417929 9.0078125 8 C 9.0078125 8.5582071 8.5660196 9 8.0078125 9 C 7.4496054 9 7.0078125 8.5582071 7.0078125 8 C 7.0078125 7.4417929 7.4496054 7 8.0078125 7 z " />
</svg>

<svg version="1.1" viewBox="0 0 16 16" xmlns="http://www.w3.org/2000/svg">
 <path d="m8.0078 3c-2.5866 0-4.7224 1.9784-4.9746 4.5h-2.5254a0.50005 0.50005 0 1 0 0 1h2.5254c0.25221 2.5216 2.388 4.5 4.9746 4.5 2.5866 0 4.7224-1.9784 4.9746-4.5h2.5254a0.50005 0.50005 0 1 0 0-1h-2.5254c-0.25221-2.5216-2.388-4.5-4.9746-4.5zm0 1c2.1984 0 3.9695 1.7593 3.9961 3.9512a0.50005 0.50005 0 0 0 0 0.095703c-0.025571 2.1928-1.7971 3.9531-3.9961 3.9531-2.1984 0-3.9695-1.7593-3.9961-3.9512a0.50005 0.50005 0 0 0 0-0.095703c0.025572-2.1928 1.7971-3.9531 3.9961-3.9531zm0 2c-1.0986 0-2 0.90135-2 2s0.90135 2 2 2 2-0.90135 2-2c0-1.0986-0.90135-2-2-2zm0 1c0.55821 0 1 0.44179 1 1s-0.44179 1-1 1-1-0.44179-1-1 0.44179-1 1-1z"/>
</svg>
